X: 30659
T: Oot Be Est Da Vong
R: reel
M: 4/4
K: Dmajor
|:A~F3 ABde|~f3d edBd|A~F3 ABde|1 fdef d2 dB:|
~g3e ~f3d|edef edBA|~g3e f2 fd|edef ~a3f|
~g3e ~f3d|edef edBd|A~F3 ABde|faec d2 dB|

